X: 1
T: Mrs James Macinnes, Edinburgh
C: William Marshall
R: strathspey
Z: 2009 John Chambers <jc:trillian.mit.edu>
S: printed MS from Sylvia Miskoe
M: C
L: 1/16
K: G
D \
| "G"D3G B3G "D7"c3A "G"B4 | "D7"cA3 "G"B3G "D7"AA,3 A,4 \
| "G"D3G B3G "C"c3G "Em"Bg3 | "Am"e3c "D7"Bcdc "G"BG3 G3 :|
f \
| "G"g3d Bg3 db3 g4 | d3b "Em"g3e "D7"fa3 a2gf \
| "G"g3d Bg3 db3 Bg3 | "Am"e3c "D7"Bcdc "G"BG3 G3 |]
f \
| "G"g3d Bg3 db3 g4 | d3b "Em"g3e "D7"fa3 a3f \
| "G"g3d (3g2a2b2 "D7"(3a2g2f2 "G"g3d | "Am"(3e2d2c2 "D7"(3B2c2d2 "G"BG3 G3 |]
